packages/core/src/svgs/tokens/mono/FOREX.svg

<svg width="24" height="24" viewBox="0 0 24 24" fill="none" xmlns="http://www.w3.org/2000/svg">
<path d="M14.924 6.33186C14.8465 6.43078 14.7306 6.53267 14.566 6.64364L12.4194 5.62215C12.6752 5.54402 13.0442 5.49398 13.4185 5.48228C13.8374 5.45404 14.2579 5.50926 14.6554 5.6447C14.9552 5.76963 15.1488 6.032 14.924 6.33186Z" fill="white"/>
<path d="M9.42317 4.68164L11.3051 5.57403C10.9168 5.69718 10.5146 5.77331 10.1074 5.80045C9.76994 5.80045 9.22654 5.70051 9.05786 5.36317C8.92894 5.09677 9.17538 4.854 9.42317 4.68164Z" fill="white"/>
<path fill-rule="evenodd" clip-rule="evenodd" d="M9.72002 2.50263L4.36024 4.95141C4.22006 5.0143 4.10078 5.11596 4.01648 5.2444C3.93215 5.37283 3.88631 5.52269 3.88434 5.67632C3.88236 5.82993 3.92436 5.98093 4.00535 6.11149C4.08635 6.24204 4.20298 6.34671 4.34149 6.41318L9.61391 8.94941C10.3746 9.31424 11.2079 9.5027 12.0516 9.50052C12.8953 9.49833 13.7276 9.30564 14.4864 8.93692L19.6651 6.40694C20.2836 6.10708 20.271 5.23877 19.6463 4.95141L14.3865 2.51512C13.6553 2.17786 12.8599 2.00218 12.0547 2.00002C11.2493 1.99786 10.4531 2.16929 9.72002 2.50263ZM15.2735 7.45627L14.6692 7.16971C13.8748 7.51775 12.854 7.61251 12.1875 7.62493L11.9376 7.20639L12.0988 7.2015C12.7622 7.18191 13.4894 7.16044 14.1023 6.90095L11.8293 5.82308C11.1722 6.04119 10.5033 6.22111 9.80748 6.1819C9.32647 6.14443 8.633 5.96951 8.37063 5.51349C8.21447 5.23238 8.34565 4.97001 8.55804 4.75137C8.67384 4.63556 8.79791 4.53494 8.92863 4.44756L8.25194 4.12668L8.75169 3.8768L9.4132 4.19159C10.0949 3.91202 10.8829 3.8768 11.6065 3.8768L11.6502 4.20788L11.5826 4.20778C11.1835 4.20692 10.4181 4.20524 9.88911 4.41813L11.897 5.37362C12.3131 5.25249 12.802 5.15514 13.2995 5.11368C13.9554 5.06372 14.6237 5.11368 15.1298 5.33858C15.5545 5.52598 15.9106 5.95077 15.6294 6.41929C15.506 6.61318 15.3362 6.77679 15.1352 6.91468L15.7482 7.20639L15.2735 7.45627Z" fill="white"/>
<path fill-rule="evenodd" clip-rule="evenodd" d="M2.00537 15.9518V8.59922C2.00537 7.70591 2.94239 7.11246 3.76699 7.48727L9.19549 9.97358C9.84441 10.269 10.3947 10.7445 10.7812 11.3436C11.1676 11.9427 11.374 12.6401 11.3756 13.353V20.7494C11.3756 21.649 10.4324 22.2424 9.60784 21.8614L4.17303 19.3251C3.5275 19.0282 2.98039 18.5529 2.5963 17.9551C2.21219 17.3575 2.00715 16.6622 2.00537 15.9518ZM8.51451 18.6565C8.26463 18.8128 8.01475 18.8689 7.65244 18.8689C6.57173 18.8689 5.41606 17.8945 4.85384 16.5327C4.63658 15.9834 4.50592 15.4039 4.46654 14.8147L3.87933 14.5649L4.17918 13.9714L4.44154 14.0839C4.44779 13.7841 4.47277 13.478 4.50401 13.178L3.87933 12.9095L4.17918 12.3222L4.61021 12.5097L4.6227 12.4222C4.82885 11.3851 5.27863 10.748 6.2469 10.748C7.01526 10.748 7.84609 11.3102 8.48953 12.1598C8.42705 12.3785 8.3271 12.6783 8.14594 12.9719C7.75864 12.1598 7.17143 11.5976 6.49678 11.5976C5.77213 11.5976 5.41606 12.041 5.24115 12.7783L7.82111 13.8839L7.52125 14.4774L5.12246 13.4466C5.08497 13.7403 5.05999 14.0464 5.05999 14.3525L7.27763 15.3083L6.97777 15.8954L5.10997 15.0896C5.15993 15.4644 5.24739 15.8393 5.39107 16.1766C5.82835 17.2572 6.70291 18.0443 7.55874 18.0443C7.81486 18.0443 8.01475 17.9943 8.16468 17.9069C8.25839 18.0631 8.38332 18.3192 8.51451 18.6565Z" fill="white"/>
<path fill-rule="evenodd" clip-rule="evenodd" d="M20.2332 7.50626C21.0578 7.13145 21.9949 7.7249 21.9949 8.62444V15.977C21.993 16.6875 21.788 17.3827 21.4038 17.9804C21.0197 18.5782 20.4727 19.0535 19.8271 19.3503L14.3923 21.8803C13.5677 22.2677 12.6245 21.6679 12.6245 20.7684V13.3721C12.6274 12.6602 12.8343 11.964 13.2207 11.3663C13.6071 10.7684 14.1567 10.2938 14.8047 9.99875L20.2332 7.50626ZM18.5214 10.7794L19.2336 10.5359L17.6219 15.0211V15.4146L18.8712 14.79V15.4146L17.6219 16.0394V16.8327L18.8712 16.2143V16.839L17.6219 17.4636V18.5319L16.9972 18.8691V17.7697L15.7479 18.3944V17.7697L16.9972 17.1451V16.3454L15.7479 16.9702V16.3454L16.9972 15.727V15.4146L15.1794 12.4099L15.8665 12.0101L17.2533 14.384L18.5214 10.7794Z" fill="white"/>
</svg>

<svg xmlns="http://www.w3.org/2000/svg" width="24" height="24" fill="none" viewBox="0 0 24 24">
    <path fill="#fff" d="M14.924 6.332a1.6 1.6 0 0 1-.358.312l-2.147-1.022a4 4 0 0 1 1-.14c.418-.028.839.027 1.236.163.3.125.494.387.269.687m-5.501-1.65 1.882.892q-.584.186-1.198.226c-.337 0-.88-.1-1.05-.437-.128-.266.118-.509.366-.681"/>
    <path fill="#fff" fill-rule="evenodd" d="M9.72 2.503 4.36 4.95a.806.806 0 0 0-.019 1.462L9.614 8.95a5.6 5.6 0 0 0 4.872-.012l5.18-2.53a.801.801 0 0 0-.02-1.456l-5.26-2.436a5.6 5.6 0 0 0-4.666-.012m5.554 4.953-.605-.286c-.794.348-1.815.443-2.482.455l-.25-.419.162-.005c.663-.02 1.39-.04 2.003-.3L11.83 5.823c-.657.218-1.326.398-2.022.359-.48-.038-1.174-.212-1.436-.669-.157-.28-.025-.543.187-.762a2.4 2.4 0 0 1 .37-.303l-.676-.321.5-.25.661.315c.682-.28 1.47-.315 2.194-.315l.043.33h-.067c-.4 0-1.165-.002-1.694.211l2.008.956a7.3 7.3 0 0 1 1.402-.26c.656-.05 1.325 0 1.83.225.426.187.782.612.5 1.08a1.75 1.75 0 0 1-.494.496l.613.291zM2.005 15.952V8.599c0-.893.937-1.487 1.762-1.112l5.428 2.487a3.72 3.72 0 0 1 2.18 3.379v7.396c0 .9-.943 1.493-1.767 1.112l-5.435-2.536a3.72 3.72 0 0 1-2.168-3.373m6.51 2.705c-.25.156-.5.212-.863.212-1.08 0-2.236-.974-2.798-2.336a5.7 5.7 0 0 1-.387-1.718l-.588-.25.3-.594.263.113c.006-.3.03-.606.062-.906l-.625-.269.3-.587.431.188.013-.088c.206-1.037.656-1.674 1.624-1.674.768 0 1.6.562 2.243 1.412a3.2 3.2 0 0 1-.344.812c-.387-.812-.975-1.374-1.65-1.374-.724 0-1.08.443-1.255 1.18l2.58 1.106-.3.593-2.399-1.03c-.037.293-.062.6-.062.906l2.218.955-.3.587-1.868-.805c.05.374.137.75.281 1.087.437 1.08 1.312 1.867 2.168 1.867.256 0 .456-.05.606-.137.093.156.218.412.35.75M20.233 7.506c.825-.375 1.762.219 1.762 1.118v7.353a3.72 3.72 0 0 1-2.168 3.373l-5.435 2.53a1.237 1.237 0 0 1-1.767-1.112v-7.396A3.72 3.72 0 0 1 14.805 10zm-1.712 3.273.713-.243-1.612 4.485v.394l1.25-.625v.625l-1.25.624v.794l1.25-.619v.625l-1.25.625v1.068l-.625.337v-1.1l-1.25.625v-.624l1.25-.625v-.8l-1.25.625v-.625l1.25-.618v-.312L15.18 12.41l.688-.4 1.386 2.374z" clip-rule="evenodd"/>
</svg>
